austria/municipalities/40613.svg

<?xml version="1.0" encoding="UTF-8"?>
<!DOCTYPE svg PUBLIC "-//W3C//DTD SVG 1.1//EN" "http://www.w3.org/Graphics/SVG/1.1/DTD/svg11.dtd">
<svg xmlns="http://www.w3.org/2000/svg" version="1.1" width="100px" height="122px" style="shape-rendering:geometricPrecision; text-rendering:geometricPrecision; image-rendering:optimizeQuality; fill-rule:evenodd; clip-rule:evenodd" xmlns:xlink="http://www.w3.org/1999/xlink">
<g><path style="opacity:1" fill="#f8f8f9" d="M -0.5,-0.5 C 32.8333,-0.5 66.1667,-0.5 99.5,-0.5C 99.5,40.1667 99.5,80.8333 99.5,121.5C 66.1667,121.5 32.8333,121.5 -0.5,121.5C -0.5,80.8333 -0.5,40.1667 -0.5,-0.5 Z"/></g>
<g><path style="opacity:1" fill="#040405" d="M 0.5,36.5 C 0.833333,36.5 1.16667,36.5 1.5,36.5C 1.83333,36.5 2.16667,36.5 2.5,36.5C 2.33398,41.8437 2.50065,47.1771 3,52.5C 21.0367,60.8806 32.0367,74.8806 36,94.5C 36.1685,102.188 36.6685,109.855 37.5,117.5C 45.8091,120.004 54.1424,120.004 62.5,117.5C 59.7468,95.2028 66.4134,76.3694 82.5,61C 86.5992,57.3915 91.2659,54.8915 96.5,53.5C 96.5,47.8333 96.5,42.1667 96.5,36.5C 97.1667,37.1667 97.8333,37.8333 98.5,38.5C 98.6666,52.1707 98.4999,65.8374 98,79.5C 89.1633,111.508 68.33,124.674 35.5,119C 14.7484,111.326 3.24841,96.4931 1,74.5C 0.500115,61.8377 0.333449,49.1711 0.5,36.5 Z"/></g>
<g><path style="opacity:1" fill="#f8f9f9" d="M 2.5,36.5 C 27.228,44.0633 43.0613,60.3966 50,85.5C 56.8173,60.8512 72.3173,44.5178 96.5,36.5C 96.5,42.1667 96.5,47.8333 96.5,53.5C 91.2659,54.8915 86.5992,57.3915 82.5,61C 66.4134,76.3694 59.7468,95.2028 62.5,117.5C 54.1424,120.004 45.8091,120.004 37.5,117.5C 36.6685,109.855 36.1685,102.188 36,94.5C 32.0367,74.8806 21.0367,60.8806 3,52.5C 2.50065,47.1771 2.33398,41.8437 2.5,36.5 Z"/></g>
<g><path style="opacity:1" fill="#050405" d="M 98.5,1.5 C 98.5,13.8333 98.5,26.1667 98.5,38.5C 97.8333,37.8333 97.1667,37.1667 96.5,36.5C 72.3173,44.5178 56.8173,60.8512 50,85.5C 43.0613,60.3966 27.228,44.0633 2.5,36.5C 2.16667,36.5 1.83333,36.5 1.5,36.5C 1.5,24.8333 1.5,13.1667 1.5,1.5C 33.8333,1.5 66.1667,1.5 98.5,1.5 Z"/></g>
<g><path style="opacity:1" fill="#eff1f2" d="M 42.5,43.5 C 44.6315,46.4461 45.6315,49.7794 45.5,53.5C 38.7438,52.0865 34.0771,48.0865 31.5,41.5C 35.512,40.1134 39.1786,40.7801 42.5,43.5 Z"/></g>
<g><path style="opacity:1" fill="#f2f3f4" d="M 44.5,23.5 C 46.4561,24.4918 48.4561,25.4918 50.5,26.5C 51.2623,28.2624 52.5956,29.2624 54.5,29.5C 56.177,31.5398 57.8437,33.5398 59.5,35.5C 61.5223,39.4148 62.8557,43.5814 63.5,48C 62.6929,50.9388 60.6929,52.7721 57.5,53.5C 56.4594,49.0025 54.9594,44.6692 53,40.5C 51.5945,37.5914 49.4278,35.5914 46.5,34.5C 41.9684,30.6932 36.6351,29.0265 30.5,29.5C 30.5,26.8333 30.5,24.1667 30.5,21.5C 35.2268,21.779 39.8935,22.4456 44.5,23.5 Z"/></g>
<g><path style="opacity:1" fill="#d6102c" d="M 46.5,34.5 C 49.1699,38.0117 51.6699,41.6784 54,45.5C 54.498,48.4816 54.6646,51.4816 54.5,54.5C 52.1667,54.5 49.8333,54.5 47.5,54.5C 47.4701,49.9776 45.8035,46.3109 42.5,43.5C 40.5766,40.2308 37.5766,38.5641 33.5,38.5C 32.5581,38.6082 31.7247,38.9415 31,39.5C 30.3333,36.8333 30.3333,34.1667 31,31.5C 31.8926,30.9186 32.8926,30.5852 34,30.5C 38.4186,31.1443 42.5852,32.4777 46.5,34.5 Z"/></g>
<g><path style="opacity:1" fill="#1f1616" d="M 65.5,28.5 C 66.9063,28.9731 67.573,29.9731 67.5,31.5C 66.0937,31.0269 65.427,30.0269 65.5,28.5 Z"/></g>
<g><path style="opacity:1" fill="#3c1d1e" d="M 54.5,29.5 C 57.5616,30.2678 59.2283,32.2678 59.5,35.5C 57.8437,33.5398 56.177,31.5398 54.5,29.5 Z"/></g>
<g><path style="opacity:1" fill="#d5122b" d="M 52.5,17.5 C 56.9788,20.919 61.3122,24.5857 65.5,28.5C 65.427,30.0269 66.0937,31.0269 67.5,31.5C 68.3382,31.8417 68.6716,32.5084 68.5,33.5C 70.3021,38.8265 69.3021,43.4932 65.5,47.5C 64.8118,42.7218 62.8118,38.7218 59.5,35.5C 59.2283,32.2678 57.5616,30.2678 54.5,29.5C 53.7377,27.7376 52.4044,26.7376 50.5,26.5C 49.3202,24.087 47.3202,23.087 44.5,23.5C 40.3068,20.9103 35.6401,19.9103 30.5,20.5C 30.5,18.1667 30.5,15.8333 30.5,13.5C 34.5138,13.3345 38.5138,13.5012 42.5,14C 45.7478,15.4595 49.0812,16.6262 52.5,17.5 Z"/></g>
<g><path style="opacity:1" fill="#1a1b15" d="M 50.5,26.5 C 52.4044,26.7376 53.7377,27.7376 54.5,29.5C 52.5956,29.2624 51.2623,28.2624 50.5,26.5 Z"/></g>
<g><path style="opacity:1" fill="#3c1b1d" d="M 44.5,23.5 C 47.3202,23.087 49.3202,24.087 50.5,26.5C 48.4561,25.4918 46.4561,24.4918 44.5,23.5 Z"/></g>
<g><path style="opacity:1" fill="#1d1413" d="M 52.5,17.5 C 58.2532,19.5358 62.5865,23.2024 65.5,28.5C 61.3122,24.5857 56.9788,20.919 52.5,17.5 Z"/></g>
<g><path style="opacity:1" fill="#d11d2e" d="M 62.5,14.5 C 60.4245,12.2812 58.0912,10.2812 55.5,8.5C 60.456,7.50585 65.456,7.17252 70.5,7.5C 70.6657,11.8461 70.499,16.1794 70,20.5C 67.8943,17.8823 65.3943,15.8823 62.5,14.5 Z"/></g>
<g><path style="opacity:1" fill="#f0f1f2" d="M 62.5,14.5 C 64.795,17.2971 67.295,19.9638 70,22.5C 70.6667,26.5 70.6667,30.5 70,34.5C 69.6174,33.944 69.1174,33.6107 68.5,33.5C 68.6716,32.5084 68.3382,31.8417 67.5,31.5C 67.573,29.9731 66.9063,28.9731 65.5,28.5C 62.5865,23.2024 58.2532,19.5358 52.5,17.5C 45.9572,13.1725 38.6239,11.1725 30.5,11.5C 30.5,10.1667 30.5,8.83333 30.5,7.5C 37.175,7.33375 43.8417,7.50042 50.5,8C 54.6602,10.0226 58.6602,12.1892 62.5,14.5 Z"/></g>
<g><path style="opacity:1" fill="#2d3236" d="M 98.5,1.5 C 66.1667,1.5 33.8333,1.5 1.5,1.5C 1.5,13.1667 1.5,24.8333 1.5,36.5C 1.16667,36.5 0.833333,36.5 0.5,36.5C 0.5,24.5 0.5,12.5 0.5,0.5C 33.3376,0.168407 66.0043,0.50174 98.5,1.5 Z"/></g>
</svg>

<svg xmlns="http://www.w3.org/2000/svg" width="100" height="122" style="shape-rendering:geometricPrecision;text-rendering:geometricPrecision;image-rendering:optimizeQuality;fill-rule:evenodd;clip-rule:evenodd"><path style="opacity:1" fill="#f8f8f9" d="M-.5-.5h100v122H-.5V-.5z"/><path style="opacity:1" fill="#040405" d="M.5 36.5h2c-.166 5.344 0 10.677.5 16 18.037 8.38 29.037 22.38 33 42 .169 7.688.669 15.355 1.5 23 8.31 2.504 16.642 2.504 25 0-2.753-22.297 3.913-41.13 20-56.5 4.1-3.608 8.766-6.108 14-7.5v-17l2 2c.167 13.67 0 27.337-.5 41-8.837 32.008-29.67 45.174-62.5 39.5C14.748 111.326 3.248 96.493 1 74.5a722.437 722.437 0 0 1-.5-38z"/><path style="opacity:1" fill="#f8f9f9" d="M2.5 36.5c24.728 7.563 40.561 23.897 47.5 49 6.817-24.649 22.317-40.982 46.5-49v17c-5.234 1.392-9.9 3.892-14 7.5-16.087 15.37-22.753 34.203-20 56.5-8.358 2.504-16.69 2.504-25 0a266.659 266.659 0 0 1-1.5-23c-3.963-19.62-14.963-33.62-33-42-.5-5.323-.666-10.656-.5-16z"/><path style="opacity:1" fill="#050405" d="M98.5 1.5v37l-2-2c-24.183 8.018-39.683 24.351-46.5 49-6.939-25.103-22.772-41.437-47.5-49h-1v-35h97z"/><path style="opacity:1" fill="#eff1f2" d="M42.5 43.5c2.132 2.946 3.132 6.28 3 10-6.756-1.413-11.423-5.413-14-12 4.012-1.387 7.679-.72 11 2z"/><path style="opacity:1" fill="#f2f3f4" d="M44.5 23.5c1.956.992 3.956 1.992 6 3 .762 1.762 2.096 2.762 4 3 1.677 2.04 3.344 4.04 5 6a39.44 39.44 0 0 1 4 12.5c-.807 2.939-2.807 4.772-6 5.5a64.841 64.841 0 0 0-4.5-13c-1.406-2.909-3.572-4.909-6.5-6-4.532-3.807-9.865-5.474-16-5v-8c4.727.279 9.394.946 14 2z"/><path style="opacity:1" fill="#d6102c" d="M46.5 34.5c2.67 3.512 5.17 7.178 7.5 11 .498 2.982.665 5.982.5 9h-7c-.03-4.522-1.697-8.19-5-11-1.923-3.27-4.923-4.936-9-5a4.938 4.938 0 0 0-2.5 1 16.25 16.25 0 0 1 0-8 6.288 6.288 0 0 1 3-1 39.44 39.44 0 0 1 12.5 4z"/><path style="opacity:1" fill="#1f1616" d="M65.5 28.5c1.406.473 2.073 1.473 2 3-1.406-.473-2.073-1.473-2-3z"/><path style="opacity:1" fill="#3c1d1e" d="M54.5 29.5c3.062.768 4.728 2.768 5 6a579.993 579.993 0 0 1-5-6z"/><path style="opacity:1" fill="#d5122b" d="M52.5 17.5a170.87 170.87 0 0 1 13 11c-.073 1.527.594 2.527 2 3 .838.342 1.172 1.008 1 2 1.802 5.327.802 9.993-3 14-.688-4.778-2.688-8.778-6-12-.272-3.232-1.938-5.232-5-6-.762-1.762-2.096-2.762-4-3-1.18-2.413-3.18-3.413-6-3-4.193-2.59-8.86-3.59-14-3v-7a72.444 72.444 0 0 1 12 .5 61.522 61.522 0 0 0 10 3.5z"/><path style="opacity:1" fill="#1a1b15" d="M50.5 26.5c1.904.238 3.238 1.238 4 3-1.904-.238-3.238-1.238-4-3z"/><path style="opacity:1" fill="#3c1b1d" d="M44.5 23.5c2.82-.413 4.82.587 6 3a609.785 609.785 0 0 1-6-3z"/><path style="opacity:1" fill="#1d1413" d="M52.5 17.5c5.753 2.036 10.087 5.702 13 11a170.87 170.87 0 0 0-13-11z"/><path style="opacity:1" fill="#d11d2e" d="M62.5 14.5a42.546 42.546 0 0 0-7-6 57.123 57.123 0 0 1 15-1 84.938 84.938 0 0 1-.5 13c-2.106-2.618-4.606-4.618-7.5-6z"/><path style="opacity:1" fill="#f0f1f2" d="M62.5 14.5a84.022 84.022 0 0 0 7.5 8c.667 4 .667 8 0 12-.383-.556-.883-.89-1.5-1 .172-.992-.162-1.658-1-2 .073-1.527-.594-2.527-2-3-2.913-5.298-7.247-8.964-13-11-6.543-4.328-13.876-6.328-22-6v-4c6.675-.166 13.342 0 20 .5 4.16 2.023 8.16 4.19 12 6.5z"/><path style="opacity:1" fill="#2d3236" d="M98.5 1.5h-97v35h-1V.5c32.838-.332 65.504.002 98 1z"/></svg>
